icons/obj.svg

<svg width="16" height="16" viewBox="0 0 16 16" fill="none" xmlns="http://www.w3.org/2000/svg">
<path fill-rule="evenodd" clip-rule="evenodd" d="M8 1.75C8.41421 1.75 8.75 2.08579 8.75 2.5V4.53647L12.3354 6.32918C12.5895 6.45622 12.75 6.71592 12.75 7V10.5365L14.3354 11.3292C14.7059 11.5144 14.8561 11.9649 14.6708 12.3354C14.4856 12.7059 14.0351 12.8561 13.6646 12.6708L12 11.8385L8.33541 13.6708C8.12427 13.7764 7.87574 13.7764 7.66459 13.6708L4 11.8385L2.33541 12.6708C1.96493 12.8561 1.51442 12.7059 1.32918 12.3354C1.14394 11.9649 1.29411 11.5144 1.66459 11.3292L3.25 10.5365V7C3.25 6.71592 3.4105 6.45622 3.66459 6.32918L7.25 4.53647V2.5C7.25 2.08579 7.58579 1.75 8 1.75ZM8 5.83853L5.67705 7L8 8.16147L10.3229 7L8 5.83853ZM11.25 8.21353L8.75 9.46353V11.7865L11.25 10.5365V8.21353ZM7.25 11.7865V9.46353L4.75 8.21353V10.5365L7.25 11.7865Z" fill="#D9295E"/>
</svg>

<svg xmlns="http://www.w3.org/2000/svg" width="16" height="16" fill="none"><path fill="#D9295E" fill-rule="evenodd" d="M8 1.75a.75.75 0 0 1 .75.75v2.036l3.585 1.793A.75.75 0 0 1 12.75 7v3.537l1.585.792a.75.75 0 1 1-.67 1.342L12 11.839 8.335 13.67a.75.75 0 0 1-.67 0L4 11.839l-1.665.832a.75.75 0 1 1-.67-1.342l1.585-.793V7a.75.75 0 0 1 .415-.67L7.25 4.535V2.5A.75.75 0 0 1 8 1.75Zm0 4.089L5.677 7 8 8.161 10.323 7 8 5.839Zm3.25 2.375-2.5 1.25v2.322l2.5-1.25V8.215Zm-4 3.572V9.465l-2.5-1.25v2.322l2.5 1.25Z" clip-rule="evenodd"/></svg>
